svgs/solid/starfighter-twin-ion-engine.svg

<svg xmlns="http://www.w3.org/2000/svg" viewBox="0 0 576 512"><!--! Font Awesome Pro 6.2.0 by @fontawesome - https://fontawesome.com License - https://fontawesome.com/license (Commercial License) Copyright 2022 Fonticons, Inc. --><path d="M32 32c17.7 0 32 14.3 32 32V211.2l75.6-15.1C163.3 137.4 220.8 96 288 96s124.7 41.4 148.4 100.1L512 211.2V64c0-17.7 14.3-32 32-32s32 14.3 32 32V224v64V448c0 17.7-14.3 32-32 32s-32-14.3-32-32V300.8l-75.6 15.1C412.7 374.6 355.2 416 288 416s-124.7-41.4-148.4-100.1L64 300.8V448c0 17.7-14.3 32-32 32s-32-14.3-32-32V288 224 64C0 46.3 14.3 32 32 32zM272 350.7V318c-5.9-1.5-11.4-3.8-16.5-6.8l-23.1 23.1c11.6 8.2 25 14 39.6 16.4zm-62.3-39l23.1-23.1c-3-5.1-5.3-10.6-6.8-16.5H193.3c2.4 14.6 8.2 28.1 16.4 39.6zM193.3 240H226c1.5-5.9 3.8-11.4 6.8-16.5l-23.1-23.1c-8.2 11.6-14 25-16.4 39.6zm39-62.3l23.1 23.1c5.1-3 10.6-5.3 16.5-6.8V161.3c-14.6 2.4-28.1 8.2-39.6 16.4zM343.6 334.3l-23.1-23.1c-5.1 3-10.6 5.3-16.5 6.8v32.7c14.6-2.4 28.1-8.2 39.6-16.4zm22.6-22.6c8.2-11.6 14-25 16.4-39.6H350c-1.5 5.9-3.8 11.4-6.8 16.5l23.1 23.1zM350 240h32.7c-2.4-14.6-8.2-28.1-16.4-39.6l-23.1 23.1c3 5.1 5.3 10.6 6.8 16.5zm-6.4-62.3c-11.6-8.2-25-14-39.6-16.4V194c5.9 1.5 11.4 3.8 16.5 6.8l23.1-23.1zM310.8 278.5c5.7-5.8 9.2-13.7 9.2-22.5c0-17.7-14.3-32-32-32s-32 14.3-32 32s14.3 32 32 32c8.8 0 16.7-3.5 22.5-9.2l.3-.3z"/></svg>

<svg xmlns="http://www.w3.org/2000/svg" viewBox="0 0 576 512"><!--! Font Awesome Pro 6.1.2 by @fontawesome - https://fontawesome.com License - https://fontawesome.com/license (Commercial License) Copyright 2022 Fonticons, Inc. --><path d="M32 32C49.67 32 64 46.33 64 64V211.2L139.6 196.1C163.3 137.4 220.8 96 288 96C355.2 96 412.7 137.4 436.4 196.1L512 211.2V64C512 46.33 526.3 32 544 32C561.7 32 576 46.33 576 64V448C576 465.7 561.7 480 544 480C526.3 480 512 465.7 512 448V300.8L436.4 315.9C412.7 374.6 355.2 416 288 416C220.8 416 163.3 374.6 139.6 315.9L64 300.8V448C64 465.7 49.67 480 32 480C14.33 480 0 465.7 0 448V64C0 46.33 14.33 32 32 32zM272 350.7V317.1C266.1 316.5 260.6 314.1 255.5 311.1L232.4 334.3C243.9 342.5 257.4 348.2 271.1 350.7H272zM209.7 311.6L232.9 288.5C229.9 283.4 227.5 277.9 226 272H193.3C195.8 286.6 201.5 300.1 209.7 311.6V311.6zM193.3 240H226C227.5 234.1 229.9 228.6 232.9 223.5L209.7 200.4C201.5 211.9 195.8 225.4 193.3 240V240zM232.4 177.7L255.5 200.9C260.6 197.9 266.1 195.5 271.1 194V161.3C257.4 163.8 243.9 169.5 232.4 177.7H232.4zM320.5 311.1C315.4 314.1 309.9 316.5 304 317.1V350.7C318.6 348.2 332.1 342.5 343.6 334.3L320.5 311.1zM366.3 311.6C374.5 300.1 380.2 286.6 382.7 272H349.1C348.5 277.9 346.1 283.4 343.1 288.5L366.3 311.6zM349.1 240H382.7C380.2 225.4 374.5 211.9 366.3 200.4L343.1 223.5C346.1 228.6 348.5 234.1 349.1 240V240zM304 161.3V194C309.9 195.5 315.4 197.9 320.5 200.9L343.6 177.7C332.1 169.5 318.6 163.8 304 161.3H304zM310.8 278.5C316.5 272.7 320 264.8 320 256C320 238.3 305.7 224 288 224C270.3 224 256 238.3 256 256C256 273.7 270.3 288 288 288C296.8 288 304.7 284.5 310.5 278.8L310.8 278.5z"/></svg>
